!! J.S. Bach "Menuet I" from Partita No. 3, solo violin, BWV 1006.
!! From 'Neue Ausgabe Saemtlicher Werke' Serie VI: Kammermusikwerke,
!! Band 1 ('Werke fuer Violine') Baerenreiter Kassel (Basel) 1958; p.60
!! This work has been error-checked using the double-entry method.
!! NOTE: The repeats at bar 8 and at the end of the movement have
!!       been expanded in this encoding.
!! NOTE: The 'monophonic' score has been expanded to a three-voice
!!       format to simplify the encoding of multiple stops.
!! NOTE: Double-stops occur in bars 22 and 48.
**kern	**kern	**kern
*M3/4	*M3/4	*M3/4
=1	=1	=1
2.r	4ee	4gg#
.	4dd#	8gg#
.	.	8ff#
.	4b	4gg#
=2	=2	=2
2.r	4cc#	4ee
.	2r	{8ff#
.	.	8dd#}
.	.	4ee
=3	=3	=3
2.r	4g#	4b
.	4a	4cc#
.	4f#	4dd#
=4	=4	=4
2.r	8e	8ee
.	8r	8dd#
.	2r	8ee
.	.	8ff#
.	.	8ee
.	.	8ff#
=5	=5	=5
2.r	4ee	4gg#
.	4dd#	4ff#
.	4b	{8ff#
.	.	16gg#
.	.	16aa}
=6	=6	=6
2.r	8ee	8gg#
.	8r	8ff#
.	2r	8gg#
.	.	8aa
.	.	8bb
.	.	8gg#
=7	=7	=7
2.r	4cc#	4ee
.	4dd#	4aa
.	4ee	4gg#
=8	=8	=8
2.r	2.b	2.ff#
=9	=9	=9
2.r	4ee	4gg#
.	4dd#	8gg#
.	.	8ff#
.	4b	4gg#
=10	=10	=10
2.r	4cc#	4ee
.	2r	{8ff#
.	.	8dd#}
.	.	4ee
=11	=11	=11
2.r	4g#	4b
.	4a	4cc#
.	4f#	4dd#
=12	=12	=12
2.r	8e	8ee
.	8r	8dd#
.	2r	8ee
.	.	8ff#
.	.	8ee
.	.	8ff#
=13	=13	=13
2.r	4ee	4gg#
.	4dd#	4ff#
.	4b	{8ff#
.	.	16gg#
.	.	16aa}
=14	=14	=14
2.r	8ee	8gg#
.	8r	8ff#
.	2r	8gg#
.	.	8aa
.	.	8bb
.	.	8gg#
=15	=15	=15
2.r	4cc#	4ee
.	4dd#	4aa
.	4ee	4gg#
=16	=16	=16
2.r	2.b	2.ff#
=17	=17	=17
2.r	4dd#	4bb
.	4cc#	8bb
.	.	8aa#
.	4b	4bb
=18	=18	=18
2.r	4a	4dd#
.	2r	{8ee
.	.	8cc#}
.	.	4dd#
=19	=19	=19
4g#	4ee	4bb
4f#	4dd#	8bb
.	.	8aa#
4e	4cc#	4bb
=20	=20	=20
2.d#	2.r	2cc#
.	.	4b
=21	=21	=21
4d#	4b#	4aa
2r	2r	4gg#
.	.	4ff#
=22	=22	=22
4c# 4g#	4cc#	4ee
2r	8cc#	8ee
.	8dd#	8ff#
.	4ee	4gg#
=23	=23	=23
2.r	4dd#	8gg#
.	.	8ff#
.	4cc#	4aa
.	4b#	4gg#
=24	=24	=24
2r	4cc#	8ff#
.	.	8ee
.	4r	8ff#
.	.	8dd#
4a	4cc#	8ee
.	.	8ff#
=25	=25	=25
4e	4cc#	4gg#
4f#	4cc#	2r
4g#	4b#	.
=26	=26	=26
4.c#	4.g#	4.cc#
4.r	4.r	8ee
.	.	8dd#
.	.	8ff#
=27	=27	=27
2.r	2.r	{8g#
.	.	8a
.	.	8b}
.	.	8cc#
.	.	8ddn
.	.	8e
=28	=28	=28
2.r	2.r	{8A
.	.	8e
.	.	8ddn}
.	.	8b
.	.	8cc#
.	.	8a
=29	=29	=29
2.r	2.r	{8f#
.	.	8g#
.	.	8a}
.	.	8b
.	.	8cc#
.	.	8a
=30	=30	=30
2.r	2.r	{8G#
.	.	8f#
.	.	8cc#}
.	.	8a
.	.	8b
.	.	8g#
=31	=31	=31
2.r	4c#	{8e
.	.	8f#
.	2r	8g#}
.	.	8a
.	.	8b
.	.	8g#
=32	=32	=32
2.r	2.r	{8a
.	.	8e
.	.	8f#}
.	.	8a
.	.	8d#
.	.	8f#
=33	=33	=33
2.r	2.r	{8g#
.	.	8b
.	.	8cc#}
.	.	8ee
.	.	8ff#
.	.	8aa
=34	=34	=34
2.r	2.r	{8ee
.	.	8dd#
.	.	8ee}
.	.	8dd#
.	.	8cc#
.	.	8b
=35	=35	=35
2.r	4ee	4gg#
.	4dd#	8gg#
.	.	8ff#
.	4b	4gg#
=36	=36	=36
2.r	4cc#	4ee
.	2r	{8ff#
.	.	8dd#}
.	.	4ee
=37	=37	=37
2.r	2.r	8g#
.	.	8b
.	.	{8e
.	.	8g#
.	.	8b}
.	.	8ddn
=38	=38	=38
2.r	2.r	{8A
.	.	8e
.	.	8ddn}
.	.	8b
.	.	8cc#
.	.	8a
=39	=39	=39
2.r	2.r	8f#
.	.	8ee
.	.	{8dd#
.	.	8ff#
.	.	8aa}
.	.	8e
=40	=40	=40
2r	2r	{8d#
.	.	8b
.	.	8ff#}
.	.	8aa
4e	4b	4gg#
=41	=41	=41
4a	4cc#	4ff#
4g#	4b	4r
4B	4f#	4dd#
=42	=42	=42
2.e	2.b	2.ee
=43	=43	=43
2.r	4dd#	4bb
.	4cc#	8bb
.	.	8aa#
.	4b	4bb
=44	=44	=44
2.r	4a	4dd#
.	2r	{8ee
.	.	8cc#}
.	.	4dd#
=45	=45	=45
4g#	4ee	4bb
4f#	4dd#	8bb
.	.	8aa#
4e	4cc#	4bb
=46	=46	=46
2.d#	2.r	2cc#
.	.	4b
=47	=47	=47
4d#	4b#	4aa
2r	2r	4gg#
.	.	4ff#
=48	=48	=48
4c# 4g#	4cc#	4ee
2r	8cc#	8ee
.	8dd#	8ff#
.	4ee	4gg#
=49	=49	=49
2.r	4dd#	8gg#
.	.	8ff#
.	4cc#	4aa
.	4b#	4gg#
=50	=50	=50
2r	4cc#	8ff#
.	.	8ee
.	4r	8ff#
.	.	8dd#
4a	4cc#	8ee
.	.	8ff#
=51	=51	=51
4e	4cc#	4gg#
4f#	4cc#	2r
4g#	4b#	.
=52	=52	=52
4.c#	4.g#	4.cc#
4.r	4.r	8ee
.	.	8dd#
.	.	8ff#
=53	=53	=53
2.r	2.r	{8g#
.	.	8a
.	.	8b}
.	.	8cc#
.	.	8ddn
.	.	8e
=54	=54	=54
2.r	2.r	{8A
.	.	8e
.	.	8ddn}
.	.	8b
.	.	8cc#
.	.	8a
=55	=55	=55
2.r	2.r	{8f#
.	.	8g#
.	.	8a}
.	.	8b
.	.	8cc#
.	.	8a
=56	=56	=56
2.r	2.r	{8G#
.	.	8f#
.	.	8cc#}
.	.	8a
.	.	8b
.	.	8g#
=57	=57	=57
2.r	4c#	{8e
.	.	8f#
.	2r	8g#}
.	.	8a
.	.	8b
.	.	8g#
=58	=58	=58
2.r	2.r	{8a
.	.	8e
.	.	8f#}
.	.	8a
.	.	8d#
.	.	8f#
=59	=59	=59
2.r	2.r	{8g#
.	.	8b
.	.	8cc#}
.	.	8ee
.	.	8ff#
.	.	8aa
=60	=60	=60
2.r	2.r	{8ee
.	.	8dd#
.	.	8ee}
.	.	8dd#
.	.	8cc#
.	.	8b
=61	=61	=61
2.r	4ee	4gg#
.	4dd#	8gg#
.	.	8ff#
.	4b	4gg#
=62	=62	=62
2.r	4cc#	4ee
.	2r	{8ff#
.	.	8dd#}
.	.	4ee
=63	=63	=63
2.r	2.r	8g#
.	.	8b
.	.	{8e
.	.	8g#
.	.	8b}
.	.	8ddn
=64	=64	=64
2.r	2.r	{8A
.	.	8e
.	.	8ddn}
.	.	8b
.	.	8cc#
.	.	8a
=65	=65	=65
2.r	2.r	8f#
.	.	8ee
.	.	{8dd#
.	.	8ff#
.	.	8aa}
.	.	8e
=66	=66	=66
2r	2r	{8d#
.	.	8b
.	.	8ff#}
.	.	8aa
4e	4b	4gg#
=67	=67	=67
4a	4cc#	4ff#
4g#	4b	4r
4B	4f#	4dd#
=68	=68	=68
2.e	2.b	2.ee
==	==	==
*-	*-	*-
